X:571
T:
S:Upptecknad efter Helena Mårtensson Flors i Burs.
O:Gotland, Burs
R:vals
M:3/4
L:1/8
K:Dm
D2 A G F E|E2 D2 z2|D2 A2 G F|F2 E2 z2|D2 A2 G F|F2 E2 z2|
w:Äu-tä pa Fa-lä-bo-dar Där stran-dä-dä »Fam-mor», Där spä-lä-dä faf-far,
F2 D2 E F|G F F2 E2|z2 z2 D2|A2 F2 E2|D4 z2:|
w:Där dan-sä-dä faf-fass-må-kän. Så gö-rom vör mä.

